X:1
T:James Gibb editions
T:Psalm 126 (Becker) - Schütz
%%score [ ( 1 2 ) ( 3 4 ) ]
L:1/8
Q:1/4=98
M:2/2
K:C
V:1 treble nm="Soprano Alto" snm="S. A."
V:2 treble 
V:3 bass nm="Tenor Bass" snm="T. B."
V:4 bass 
V:1
"^Cornelius Becker\n(1561-1604)""^Psalm 126, SWV 231""^Heinrich Schütz\n(1585-1672)" E4 E2 E2 | %1
w: ~Wenn Gott ein-|
 F4 G4 | A2 A2 ^G4 | B4 c2 B2 | A4 G4 | A2 B2 c4 |[M:2/2] G4 G2 G2 | A4 B4 | c2 c2 B4 | B4 A2 G2 | %10
w: mal er-|lö- sen wird,|die aus Zi-|on sind|weg- ge- führt,|und die Ge-|fang- nen|ma- chen los,|wie wird da|
 d4 c4 | (B2 A4) ^G2 | A8 |] %13
w: sein die|Freud * so|groß.|
V:2
 C4 C2 C2 | D4 E2 E2- | E2 D2 E4 | E4 E2 E2 | C4 E4 | C2 G2 G4 |[M:2/2] E4 D2 E2 | F4 G2 G2- | %8
w: |* er- lö\-|* sen *|||||* * ma\-|
 G2 ^F2 G4 | G4 ^F2 G2 | G4 G4 | =F4 E4 | E8 |] %13
w: * chen *|||||
V:3
 A,4 A,2 A,2 | A,4 C4 | A,2 A,2 B,4 | ^G,4 A,2 G,2 | A,4 C4 | A,2 D2 E4 | %6
[M:2/2]"^2. Man wird in Sprüngen gehn herein, \ndes Rühmens wird kein Ende sein,\nman wird den Heiden sagen an: \nSeht, was der Herr an uns getan.\n\n3. Der Herr hat Guts an uns getan, \ndes freuet sich ein jedermann,\nwir sind fröhlich in unserm Gott, \nder uns errett aus aller Not.\n\n5. All, die mit Tränen säen aus, \nkommen mit Freud wiedrum nach Haus,\nwenn ihnen deine Güt und Gnad \nfröhliche Ernt bescheret hat.\n\n6. Mit Tränen wird das Feld gedüngt, \ndas doch so edlen Samen bringt,\ndrauf man hernach mit frohem Mut \nsammelt des Lebens Garben gut." C4 B,2 C2 | %7
 C4 E4 | C2 A,2 D4 | D4 D2 B,2 | B,4 E4 | (D2 C2) B,4 | A,8 |] %13
V:4
 A,,4 A,,2 A,,2 | D,4 C,4 | F,2 F,2 E,4 | E,4 A,,2 E,2 | F,4 C,4 | F,2 G,2 C,4 | %6
[M:2/2] C,4 G,2 C,2 | F,4 E,4 | A,2 A,2 G,4 | G,4 D,2 E,2 | B,,4 C,4 | D,4 E,4 | A,,8 |] %13

